assets/imgs/img/keyVisual_2.svg

<svg width="110" height="112" viewBox="0 0 110 112" fill="none" xmlns="http://www.w3.org/2000/svg">
<path d="M90.8709 62.9666H105.219V48.4359H90.8709V38.7487H86.0883V33.9052H90.8709V29.0616H95.6536V24.218H90.8709V19.3745H86.0883V14.5309H81.3057V19.3745H76.5231V24.218H71.7404V19.3745H62.1752V4.84375H47.8273V19.3745H38.2621V24.218H33.4794V19.3745H28.6968V14.5309H23.9142V19.3745H19.1316V24.218H14.3489V29.0616H19.1316V33.9052H23.9142V38.7487H19.1316V48.4359H4.78369V62.9666H19.1316V72.6537H23.9142V77.4973H19.1316V82.3408H14.3489V87.1844H19.1316V92.028H23.9142V96.8715H28.6968V92.028H33.4794V87.1844H38.2621V92.028H47.8273V106.559H62.1752V92.028H71.7404V87.1844H76.5231V92.028H81.3057V96.8715H86.0883V92.028H90.8709V87.1844H95.6536V82.3408H90.8709V77.4973H86.0883V72.6537H90.8709V62.9666ZM71.7404 53.2794V62.9666H66.9578V67.8101H62.1752V72.6537H47.8273V67.8101H43.0447V62.9666H38.2621V48.4359H43.0447V43.5923H47.8273V38.7487H62.1752V43.5923H66.9578V48.4359H71.7404V53.2794Z" fill="#00CED4"/>
<path d="M57.3925 0.000244141H52.6099V4.84381H57.3925V0.000244141Z" fill="black"/>
<path d="M62.1737 0.000244141H57.3911V4.84381H62.1737V0.000244141Z" fill="black"/>
<path d="M66.9569 0.000244141H62.1743V4.84381H66.9569V0.000244141Z" fill="black"/>
<path d="M66.9569 4.84375H62.1743V9.68732H66.9569V4.84375Z" fill="black"/>
<path d="M66.9569 9.68726H62.1743V14.5308H66.9569V9.68726Z" fill="black"/>
<path d="M66.9569 14.531H62.1743V19.3746H66.9569V14.531Z" fill="black"/>
<path d="M71.7392 14.531H66.9565V19.3746H71.7392V14.531Z" fill="black"/>
<path d="M76.5224 19.3745H71.7397V24.2181H76.5224V19.3745Z" fill="black"/>
<path d="M81.3056 14.531H76.5229V19.3746H81.3056V14.531Z" fill="black"/>
<path d="M86.0878 9.68726H81.3052V14.5308H86.0878V9.68726Z" fill="black"/>
<path d="M90.87 14.531H86.0874V19.3746H90.87V14.531Z" fill="black"/>
<path d="M95.6523 19.3745H90.8696V24.2181H95.6523V19.3745Z" fill="black"/>
<path d="M100.435 24.218H95.6528V29.0616H100.435V24.218Z" fill="black"/>
<path d="M95.6523 29.0615H90.8696V33.9051H95.6523V29.0615Z" fill="black"/>
<path d="M90.87 33.9053H86.0874V38.7488H90.87V33.9053Z" fill="black"/>
<path d="M95.6523 38.7488H90.8696V43.5923H95.6523V38.7488Z" fill="black"/>
<path d="M95.6523 43.5923H90.8696V48.4359H95.6523V43.5923Z" fill="black"/>
<path d="M100.435 43.5923H95.6528V48.4359H100.435V43.5923Z" fill="black"/>
<path d="M105.218 43.5923H100.435V48.4359H105.218V43.5923Z" fill="black"/>
<path d="M110.001 43.5923H105.218V48.4359H110.001V43.5923Z" fill="black"/>
<path d="M110.001 48.4358H105.218V53.2794H110.001V48.4358Z" fill="black"/>
<path d="M110.001 53.2795H105.218V58.1231H110.001V53.2795Z" fill="black"/>
<path d="M52.6085 4.84375L57.3911 4.84375V0.000182629L52.6085 0.000182629V4.84375Z" fill="black"/>
<path d="M47.8263 4.84375L52.6089 4.84375V0.000182629L47.8263 0.000182629V4.84375Z" fill="black"/>
<path d="M43.044 4.84375L47.8267 4.84375V0.000182629L43.044 0.000182629V4.84375Z" fill="black"/>
<path d="M43.044 9.68726H47.8267V4.84369L43.044 4.84369V9.68726Z" fill="black"/>
<path d="M43.044 14.531H47.8267V9.68744H43.044V14.531Z" fill="black"/>
<path d="M43.044 19.3743H47.8267V14.5307H43.044V19.3743Z" fill="black"/>
<path d="M38.2623 19.3743H43.0449V14.5307H38.2623V19.3743Z" fill="black"/>
<path d="M33.4786 24.218H38.2612V19.3745H33.4786V24.218Z" fill="black"/>
<path d="M28.6964 19.3743H33.479V14.5307H28.6964V19.3743Z" fill="black"/>
<path d="M23.9132 14.531H28.6958V9.68744H23.9132V14.531Z" fill="black"/>
<path d="M19.1309 19.3743H23.9136V14.5307H19.1309V19.3743Z" fill="black"/>
<path d="M14.3482 24.218H19.1309V19.3745H14.3482V24.218Z" fill="black"/>
<path d="M9.56552 29.0613H14.3481V24.2177H9.56552V29.0613Z" fill="black"/>
<path d="M14.3482 33.905H19.1309V29.0615H14.3482V33.905Z" fill="black"/>
<path d="M19.1309 38.7488H23.9136V33.9052H19.1309V38.7488Z" fill="black"/>
<path d="M14.3482 43.592H19.1309V38.7485H14.3482V43.592Z" fill="black"/>
<path d="M14.3482 48.4358H19.1309V43.5922H14.3482V48.4358Z" fill="black"/>
<path d="M9.56552 48.4358H14.3481V43.5922H9.56552V48.4358Z" fill="black"/>
<path d="M4.78232 48.4358H9.56494V43.5922H4.78232L4.78232 48.4358Z" fill="black"/>
<path d="M9.01222e-05 48.4358H4.78271L4.78271 43.5922H9.01222e-05L9.01222e-05 48.4358Z" fill="black"/>
<path d="M9.01222e-05 53.2795H4.78271L4.78271 48.436H9.01222e-05L9.01222e-05 53.2795Z" fill="black"/>
<path d="M9.01222e-05 58.1228H4.78271L4.78271 53.2792H9.01222e-05L9.01222e-05 58.1228Z" fill="black"/>
<path d="M52.6085 111.402H57.3911V106.559H52.6085V111.402Z" fill="black"/>
<path d="M47.8263 111.402H52.6089V106.559H47.8263V111.402Z" fill="black"/>
<path d="M43.044 111.402H47.8267V106.559H43.044V111.402Z" fill="black"/>
<path d="M43.044 106.559H47.8267V101.715H43.044V106.559Z" fill="black"/>
<path d="M43.044 101.715H47.8267V96.8715H43.044V101.715Z" fill="black"/>
<path d="M43.044 96.8718H47.8267V92.0283H43.044V96.8718Z" fill="black"/>
<path d="M38.2623 96.8718H43.0449V92.0283H38.2623V96.8718Z" fill="black"/>
<path d="M33.4786 92.0281H38.2612V87.1845H33.4786V92.0281Z" fill="black"/>
<path d="M28.6964 96.8718H33.479V92.0283H28.6964V96.8718Z" fill="black"/>
<path d="M23.9132 101.715H28.6958V96.8715H23.9132V101.715Z" fill="black"/>
<path d="M19.1309 96.8718H23.9136V92.0283H19.1309V96.8718Z" fill="black"/>
<path d="M14.3482 92.0281H19.1309V87.1845H14.3482V92.0281Z" fill="black"/>
<path d="M9.56552 87.1843H14.3481V82.3408H9.56552V87.1843Z" fill="black"/>
<path d="M14.3482 82.3411H19.1309V77.4975H14.3482V82.3411Z" fill="black"/>
<path d="M19.1309 77.4973H23.9136V72.6537H19.1309V77.4973Z" fill="black"/>
<path d="M14.3482 72.6536H19.1309V67.81H14.3482V72.6536Z" fill="black"/>
<path d="M14.3482 67.8103H19.1309V62.9667H14.3482V67.8103Z" fill="black"/>
<path d="M9.56552 67.8103H14.3481V62.9667H9.56552V67.8103Z" fill="black"/>
<path d="M4.78232 67.8103H9.56494V62.9667H4.78232L4.78232 67.8103Z" fill="black"/>
<path d="M9.01222e-05 67.8103H4.78271L4.78271 62.9667H9.01222e-05L9.01222e-05 67.8103Z" fill="black"/>
<path d="M9.01222e-05 62.9666H4.78271L4.78271 58.123H9.01222e-05L9.01222e-05 62.9666Z" fill="black"/>
<path d="M9.01222e-05 58.123H4.78271L4.78271 53.2795H9.01222e-05L9.01222e-05 58.123Z" fill="black"/>
<path d="M57.3925 106.559H52.6099V111.402H57.3925V106.559Z" fill="black"/>
<path d="M62.1737 106.559H57.3911V111.402H62.1737V106.559Z" fill="black"/>
<path d="M66.9569 106.559H62.1743V111.402H66.9569V106.559Z" fill="black"/>
<path d="M66.9569 101.715H62.1743V106.559H66.9569V101.715Z" fill="black"/>
<path d="M66.9569 96.8718H62.1743V101.715H66.9569V96.8718Z" fill="black"/>
<path d="M66.9569 92.0281H62.1743V96.8716H66.9569V92.0281Z" fill="black"/>
<path d="M71.7392 92.0281H66.9565V96.8716H71.7392V92.0281Z" fill="black"/>
<path d="M76.5224 87.1846H71.7397V92.0281H76.5224V87.1846Z" fill="black"/>
<path d="M81.3056 92.0281H76.5229V96.8716H81.3056V92.0281Z" fill="black"/>
<path d="M86.0878 96.8718H81.3052V101.715H86.0878V96.8718Z" fill="black"/>
<path d="M90.87 92.0281H86.0874V96.8716H90.87V92.0281Z" fill="black"/>
<path d="M95.6523 87.1846H90.8696V92.0281H95.6523V87.1846Z" fill="black"/>
<path d="M100.435 82.3411H95.6528V87.1846H100.435V82.3411Z" fill="black"/>
<path d="M95.6523 77.4976H90.8696V82.3411H95.6523V77.4976Z" fill="black"/>
<path d="M90.87 72.6538H86.0874V77.4974H90.87V72.6538Z" fill="black"/>
<path d="M95.6523 67.8103H90.8696V72.6539H95.6523V67.8103Z" fill="black"/>
<path d="M95.6523 62.9668H90.8696V67.8104H95.6523V62.9668Z" fill="black"/>
<path d="M100.435 62.9668H95.6528V67.8104H100.435V62.9668Z" fill="black"/>
<path d="M105.218 62.9668H100.435V67.8104H105.218V62.9668Z" fill="black"/>
<path d="M110.001 62.9668H105.218V67.8104H110.001V62.9668Z" fill="black"/>
<path d="M110.001 58.123H105.218V62.9666H110.001V58.123Z" fill="black"/>
<path d="M110.001 53.2795H105.218V58.1231H110.001V53.2795Z" fill="black"/>
<path d="M57.3925 38.7488H52.6099V43.5923H57.3925V38.7488Z" fill="black"/>
<path d="M62.1737 38.7488H57.3911V43.5923H62.1737V38.7488Z" fill="black"/>
<path d="M66.9569 43.5923H62.1743V48.4359H66.9569V43.5923Z" fill="black"/>
<path d="M71.7392 48.4358H66.9565V53.2794H71.7392V48.4358Z" fill="black"/>
<path d="M71.7392 53.2795H66.9565V58.1231H71.7392V53.2795Z" fill="black"/>
<path d="M71.7392 58.123H66.9565V62.9666H71.7392V58.123Z" fill="black"/>
<path d="M66.9569 62.9666H62.1743V67.8101H66.9569V62.9666Z" fill="black"/>
<path d="M62.1737 67.8103H57.3911V72.6539H62.1737V67.8103Z" fill="black"/>
<path d="M57.3925 67.8103H52.6099V72.6539H57.3925V67.8103Z" fill="black"/>
<path d="M52.6093 67.8103H47.8267V72.6539H52.6093V67.8103Z" fill="black"/>
<path d="M47.8271 62.9666H43.0444V67.8101H47.8271V62.9666Z" fill="black"/>
<path d="M43.0439 58.123H38.2612V62.9666H43.0439V58.123Z" fill="black"/>
<path d="M43.0439 53.2795H38.2612V58.1231H43.0439V53.2795Z" fill="black"/>
<path d="M43.0439 48.4358H38.2612V53.2794H43.0439V48.4358Z" fill="black"/>
<path d="M47.8271 43.5923H43.0444V48.4359H47.8271V43.5923Z" fill="black"/>
<path d="M52.6093 38.7488H47.8267V43.5923H52.6093V38.7488Z" fill="black"/>
</svg>

<svg xmlns="http://www.w3.org/2000/svg" width="110" height="112" fill="none" viewBox="0 0 110 112"><path fill="#00ced4" d="M90.87 62.967h14.349V48.436H90.871v-9.687h-4.783v-4.844h4.783v-4.843h4.783v-4.844H90.87v-4.843h-4.783V14.53h-4.782v4.844h-4.783v4.843H71.74v-4.843h-9.565V4.844H47.827v14.53h-9.565v4.844H33.48v-4.843h-4.782V14.53h-4.783v4.844h-4.782v4.843H14.35v4.844h4.783v4.843h4.782v4.844h-4.782v9.687H4.784v14.53h14.348v9.688h4.782v4.843h-4.782v4.844h-4.783v4.843h4.783v4.844h4.782v4.843h4.783v-4.843h4.782v-4.844h4.783v4.844h9.565v14.531h14.348v-14.53h9.565v-4.844h4.783v4.844h4.783v4.843h4.782v-4.843h4.783v-4.844h4.783v-4.843H90.87v-4.844h-4.783v-4.843h4.783zm-19.13-9.688v9.688h-4.782v4.843h-4.783v4.844H47.827V67.81h-4.782v-4.843h-4.783V48.436h4.783v-4.844h4.782V38.75h14.348v4.843h4.783v4.844h4.782z"/><path fill="#000" d="M57.393 0H52.61v4.844h4.782z"/><path fill="#000" d="M62.174 0H57.39v4.844h4.783z"/><path fill="#000" d="M66.957 0h-4.783v4.844h4.783zm0 4.844h-4.783v4.843h4.783z"/><path fill="#000" d="M66.957 9.687h-4.783v4.844h4.783zm0 4.844h-4.783v4.844h4.783zm4.783 0h-4.783v4.844h4.782zm4.782 4.844H71.74v4.843h4.782zm4.784-4.844h-4.783v4.844h4.783zm4.782-4.844h-4.783v4.844h4.783zm4.782 4.844h-4.783v4.844h4.783zm4.782 4.844H90.87v4.843h4.782zm4.783 4.843h-4.782v4.844h4.782zm-4.783 4.844H90.87v4.843h4.782zm-4.782 4.843h-4.783v4.844h4.783zm4.782 4.844H90.87v4.843h4.782zm0 4.843H90.87v4.844h4.782zm4.783 0h-4.782v4.844h4.782zm4.783 0h-4.783v4.844h4.783zm4.783 0h-4.783v4.844h4.783zm0 4.844h-4.783v4.843h4.783zm0 4.844h-4.783v4.843h4.783zM52.609 4.844h4.782V0H52.61zm-4.783 0h4.783V0h-4.783z"/><path fill="#000" d="M43.044 4.844h4.783V0h-4.783zm0 4.843h4.783V4.844h-4.783zm0 4.844h4.783V9.687h-4.783z"/><path fill="#000" d="M43.044 19.374h4.783v-4.843h-4.783z"/><path fill="#000" d="M38.262 19.374h4.783v-4.843h-4.783zm-4.783 4.844h4.782v-4.843H33.48zm-4.783-4.844h4.783v-4.843h-4.783z"/><path fill="#000" d="M23.913 14.531h4.783V9.687h-4.783z"/><path fill="#000" d="M19.13 19.374h4.784v-4.843H19.13zm-4.782 4.844h4.783v-4.843h-4.783zm-4.782 4.843h4.782v-4.843H9.566zm4.782 4.844h4.783v-4.844h-4.783zm4.782 4.844h4.784v-4.844H19.13z"/><path fill="#000" d="M14.348 43.592h4.783v-4.843h-4.783zm0 4.844h4.783v-4.844h-4.783z"/><path fill="#000" d="M9.566 48.436h4.782v-4.844H9.566zm-4.784 0h4.783v-4.844H4.782z"/><path fill="#000" d="M0 48.436h4.783v-4.844H0zm0 4.844h4.783v-4.844H0z"/><path fill="#000" d="M0 58.123h4.783v-4.844H0zm52.609 53.279h4.782v-4.843H52.61zm-4.783 0h4.783v-4.843h-4.783z"/><path fill="#000" d="M43.044 111.402h4.783v-4.843h-4.783zm0-4.843h4.783v-4.844h-4.783zm0-4.844h4.783v-4.844h-4.783z"/><path fill="#000" d="M43.044 96.872h4.783v-4.844h-4.783z"/><path fill="#000" d="M38.262 96.872h4.783v-4.844h-4.783zm-4.783-4.844h4.782v-4.844H33.48zm-4.783 4.844h4.783v-4.844h-4.783z"/><path fill="#000" d="M23.913 101.715h4.783v-4.844h-4.783z"/><path fill="#000" d="M19.13 96.872h4.784v-4.844H19.13zm-4.782-4.844h4.783v-4.844h-4.783zm-4.782-4.844h4.782v-4.843H9.566zm4.782-4.843h4.783v-4.843h-4.783zm4.782-4.844h4.784v-4.843H19.13zm-4.782-4.843h4.783V67.81h-4.783zm0-4.844h4.783v-4.843h-4.783z"/><path fill="#000" d="M9.566 67.81h4.782v-4.843H9.566zm-4.784 0h4.783v-4.843H4.782z"/><path fill="#000" d="M0 67.81h4.783v-4.843H0zm0-4.843h4.783v-4.844H0zm0-4.844h4.783V53.28H0zm57.393 48.436H52.61v4.843h4.782z"/><path fill="#000" d="M62.174 106.559H57.39v4.843h4.783z"/><path fill="#000" d="M66.957 106.559h-4.783v4.843h4.783zm0-4.844h-4.783v4.844h4.783zm0-4.843h-4.783v4.843h4.783zm0-4.844h-4.783v4.844h4.783zm4.783 0h-4.783v4.844h4.782zm4.782-4.843H71.74v4.843h4.782zm4.784 4.843h-4.783v4.844h4.783zm4.782 4.844h-4.783v4.843h4.783zm4.782-4.844h-4.783v4.844h4.783zm4.782-4.843H90.87v4.843h4.782zm4.783-4.844h-4.782v4.844h4.782zm-4.783-4.843H90.87v4.843h4.782zm-4.782-4.844h-4.783v4.843h4.783zm4.782-4.844H90.87v4.844h4.782zm0-4.843H90.87v4.843h4.782zm4.783 0h-4.782v4.843h4.782zm4.783 0h-4.783v4.843h4.783zm4.783 0h-4.783v4.843h4.783zm0-4.844h-4.783v4.844h4.783zm0-4.843h-4.783v4.843h4.783zM57.393 38.749H52.61v4.843h4.782z"/><path fill="#000" d="M62.174 38.749H57.39v4.843h4.783zm4.783 4.843h-4.783v4.844h4.783zm4.783 4.844h-4.783v4.843h4.782zm0 4.844h-4.783v4.843h4.782z"/><path fill="#000" d="M71.74 58.123h-4.783v4.844h4.782zm-4.783 4.844h-4.783v4.843h4.783zm-4.783 4.843H57.39v4.844h4.783z"/><path fill="#000" d="M57.393 67.81H52.61v4.844h4.782zm-4.783 0h-4.783v4.844h4.782zm-4.783-4.843h-4.783v4.843h4.783zm-4.783-4.844H38.26v4.844h4.783z"/><path fill="#000" d="M43.044 53.28H38.26v4.843h4.783zm0-4.844H38.26v4.843h4.783zm4.783-4.844h-4.783v4.844h4.783zm4.783-4.843h-4.783v4.843h4.782z"/></svg>
